public/headerImg/call.svg

<svg width="21" height="20" viewBox="0 0 21 20" fill="none" xmlns="http://www.w3.org/2000/svg">
<g clip-path="url(#clip0_70_12)">
<path fill-rule="evenodd" clip-rule="evenodd" d="M3.9727 1.43815C3.90274 1.43806 3.83348 1.45201 3.76901 1.47917C3.70455 1.50634 3.64619 1.54617 3.5974 1.5963C2.66211 2.55328 2.01522 3.51597 1.67438 4.45782C1.5237 4.92728 1.52 5.43157 1.66379 5.90319C2.27387 8.36706 3.81051 11.4287 5.5811 13.7079L5.75488 13.9319C7.52328 16.2091 10.1093 18.454 12.3463 19.6541C12.7578 19.8839 13.2218 20.0032 13.693 20.0003C14.6534 20.0003 15.8683 19.456 17.304 18.3825L17.3421 18.3472L17.3725 18.3212L17.3767 18.3158C17.3901 18.3002 17.4025 18.2839 17.414 18.2669L17.4396 18.2316C17.4487 18.2153 17.4568 18.1985 17.464 18.1812L17.4838 18.1383C17.489 18.1217 17.4933 18.1049 17.4967 18.0879C17.5015 18.0722 17.5054 18.0563 17.5085 18.0402C17.5106 18.022 17.5118 18.0038 17.512 17.9855C17.512 17.9703 17.5149 17.9551 17.5142 17.9398C17.5128 17.9211 17.5105 17.9024 17.5072 17.8839L17.5008 17.8397C17.4967 17.8229 17.49 17.8071 17.484 17.7911C17.4779 17.7751 17.4737 17.7575 17.4671 17.742L17.4451 17.7035C17.4358 17.6854 17.4253 17.6678 17.4139 17.6509L17.4103 17.6452L17.3798 17.6116L17.349 17.5761L15.026 15.3896C14.9237 15.2971 14.7892 15.2484 14.6514 15.254C14.5136 15.2597 14.3836 15.3192 14.2893 15.4198C14.1949 15.5204 14.1439 15.6541 14.1471 15.7919C14.1503 15.9298 14.2076 16.0609 14.3065 16.157L16.1619 17.9032C15.1635 18.579 14.2993 18.9467 13.6929 18.9467C13.4147 18.9486 13.1402 18.8829 12.893 18.7551L12.8527 18.7311C10.7327 17.5968 8.27186 15.4588 6.58379 13.2845L6.40984 13.0607C4.71908 10.8845 3.25488 7.97008 2.67975 5.63597L2.67068 5.6037C2.59348 5.34721 2.5904 5.07413 2.66177 4.81597C2.95289 4.08304 3.37234 3.40789 3.90043 2.82219L5.30043 5.0921C5.33636 5.1516 5.38374 5.20337 5.43982 5.24443C5.4959 5.28549 5.55956 5.31502 5.62713 5.33131C5.6947 5.34759 5.76483 5.35032 5.83346 5.33932C5.90208 5.32832 5.96785 5.30381 6.02694 5.26723C6.08604 5.23064 6.13729 5.18269 6.17772 5.12616C6.21816 5.06964 6.24699 5.00565 6.26253 4.9379C6.27807 4.87016 6.28002 4.8 6.26826 4.7315C6.25651 4.663 6.23128 4.59751 6.19404 4.53882L4.46059 1.72824C4.43295 1.68467 4.39896 1.64548 4.35975 1.61193L4.33975 1.5879C4.24182 1.49144 4.10982 1.43746 3.97236 1.43765M17.7824 3.7279C17.6168 3.72763 17.4559 3.78319 17.3257 3.8856C17.1955 3.988 17.1035 4.1313 17.0648 4.29235C17.026 4.4534 17.0426 4.62282 17.1119 4.77328C17.1812 4.92373 17.2992 5.04644 17.4469 5.12161C17.5945 5.19678 17.7631 5.22002 17.9256 5.18758C18.088 5.15515 18.2348 5.06892 18.3422 4.94283C18.4497 4.81673 18.5115 4.65812 18.5177 4.49258C18.5239 4.32704 18.4742 4.16423 18.3766 4.03042C18.3086 3.93651 18.2193 3.86011 18.116 3.80751C18.0127 3.75491 17.8984 3.72763 17.7824 3.7279ZM15.7048 5.25025C15.5391 5.25002 15.3783 5.30561 15.2481 5.40804C15.1179 5.51047 15.026 5.65377 14.9873 5.81483C14.9485 5.97588 14.9651 6.14529 15.0345 6.29573C15.1038 6.44616 15.2218 6.56885 15.3695 6.644C15.5171 6.71915 15.6857 6.74237 15.8482 6.70992C16.0106 6.67747 16.1574 6.59125 16.2648 6.46515C16.3722 6.33905 16.434 6.18045 16.4402 6.01491C16.4465 5.84938 16.3967 5.68658 16.2991 5.55277C16.2311 5.45881 16.1418 5.38237 16.0385 5.32977C15.9351 5.27717 15.8208 5.24991 15.7048 5.25025ZM13.6277 6.77311C13.462 6.77288 13.3011 6.82847 13.1709 6.9309C13.0407 7.03333 12.9489 7.17663 12.9101 7.33768C12.8714 7.49874 12.888 7.66815 12.9573 7.81858C13.0267 7.96902 13.1447 8.09171 13.2923 8.16686C13.4399 8.24201 13.6086 8.26523 13.771 8.23278C13.9334 8.20033 14.0802 8.1141 14.1876 7.98801C14.2951 7.86191 14.3569 7.7033 14.3631 7.53777C14.3693 7.37224 14.3196 7.20944 14.2219 7.07563C14.1539 6.98173 14.0646 6.90534 13.9613 6.85274C13.8579 6.80014 13.7436 6.77285 13.6277 6.77311ZM11.5502 8.29546C11.3942 8.29535 11.2423 8.34517 11.1167 8.43765C10.9759 8.54097 10.8765 8.69113 10.8364 8.86116C10.7963 9.03118 10.8182 9.20993 10.8981 9.36528C10.978 9.52063 11.1106 9.6424 11.2722 9.70873C11.4338 9.77505 11.6138 9.78157 11.7798 9.72713C11.9457 9.67268 12.0869 9.56083 12.1778 9.41167C12.2687 9.26251 12.3035 9.08582 12.2758 8.91334C12.2481 8.74086 12.1599 8.58389 12.0269 8.47064C11.8939 8.35739 11.7249 8.29528 11.5502 8.29546ZM5.99337 0C5.68417 0.00157145 5.38223 0.093843 5.12496 0.265378L5.70463 1.14336C5.78767 1.08433 5.88632 1.05118 5.98816 1.04807C6.08211 1.05543 6.1728 1.0858 6.25223 1.13651C6.33167 1.18722 6.3974 1.2567 6.44362 1.33882C7.22582 2.4532 7.93288 3.61847 8.56009 4.82689C8.60144 4.89935 8.61459 4.98453 8.59704 5.06609C8.57949 5.14765 8.53246 5.21987 8.46496 5.26891C8.191 5.49447 7.88184 5.67349 7.54984 5.79882C7.49286 5.82286 7.45085 5.84134 7.42782 5.85277C6.64059 6.24235 5.8011 7.00252 6.2727 8.41143C6.27889 8.42982 6.28602 8.44788 6.29404 8.46555C6.75807 9.4684 7.53656 10.5366 8.309 11.5412L8.32144 11.5568L8.3416 11.5844C9.12396 12.5808 9.96597 13.5987 10.8213 14.2945C10.8369 14.3071 10.8534 14.3188 10.8703 14.3299C11.2088 14.5628 11.6074 14.6927 12.0181 14.7039C12.708 14.7039 13.2505 14.2775 13.6282 13.8336C13.7424 13.6992 14.0438 13.3235 14.1714 13.163L14.1853 13.1449C14.2618 13.027 14.3785 12.941 14.5137 12.9027C14.5198 12.902 14.5259 12.9017 14.532 12.9017C14.6198 12.9108 14.7021 12.9489 14.7658 13.0101C15.512 13.6195 17.1443 15.0326 17.5366 15.5383C17.5503 15.5561 17.5651 15.5729 17.5809 15.5887C18.0836 16.0894 17.927 16.3892 17.8756 16.4879C17.8416 16.5492 17.8202 16.6166 17.8127 16.6863C17.8052 16.756 17.8117 16.8264 17.8318 16.8935C17.8519 16.9606 17.8853 17.0231 17.9299 17.0771C17.9745 17.1312 18.0294 17.1757 18.0915 17.2082C18.1535 17.2407 18.2215 17.2605 18.2913 17.2663C18.3611 17.2722 18.4314 17.264 18.498 17.2423C18.5646 17.2206 18.6263 17.1858 18.6792 17.14C18.7322 17.0941 18.7755 17.0381 18.8065 16.9753C18.9756 16.6513 19.2661 15.8012 18.3448 14.8649C17.7888 14.1699 15.9095 12.5855 15.4298 12.1936C15.1811 11.9765 14.8637 11.8542 14.5335 11.8484C14.4848 11.8484 14.4362 11.8513 14.3878 11.8571C14.1806 11.8914 13.9823 11.9664 13.8042 12.0778C13.6261 12.1891 13.4719 12.3346 13.3503 12.5059C13.1966 12.6993 12.9245 13.0376 12.8293 13.1501C12.5028 13.5338 12.2275 13.6543 11.9969 13.6543C11.8031 13.6424 11.6169 13.5744 11.4611 13.4585C10.6993 12.8328 9.91791 11.8882 9.1858 10.9566L9.15774 10.9192L9.1532 10.9129L9.12749 10.8807C8.4048 9.9395 7.67959 8.94571 7.25992 8.04924C7.14967 7.71765 7.01522 7.2316 7.89102 6.79798C7.90564 6.79109 7.929 6.78118 7.95824 6.76891C8.41666 6.59469 8.83977 6.33897 9.20715 6.01412C9.42868 5.809 9.57752 5.53743 9.63123 5.24035C9.68495 4.94326 9.64064 4.63676 9.50496 4.36706C8.8517 3.10313 8.11324 1.88508 7.29471 0.721345C7.15325 0.503927 6.96066 0.324492 6.7338 0.19874C6.50694 0.0729872 6.25271 0.00475034 5.99337 0Z" fill="#F47E44"/>
</g>
<defs>
<clipPath id="clip0_70_12">
<rect width="20" height="20" fill="white" transform="translate(0.271484)"/>
</clipPath>
</defs>
</svg>

<svg width="21" height="20" fill="none" xmlns="http://www.w3.org/2000/svg"><g clip-path="url(#a)"><path fill-rule="evenodd" clip-rule="evenodd" d="M3.973 1.438a.523.523 0 0 0-.376.158c-.935.957-1.582 1.92-1.923 2.862a2.42 2.42 0 0 0-.01 1.445c.61 2.464 2.147 5.526 3.917 7.805l.174.224c1.768 2.277 4.354 4.522 6.591 5.722.412.23.876.35 1.347.346.96 0 2.175-.544 3.611-1.617l.038-.036.03-.026.005-.005a.535.535 0 0 0 .037-.05l.026-.034a.487.487 0 0 0 .024-.05l.02-.044a.49.49 0 0 0 .013-.05.461.461 0 0 0 .012-.048.527.527 0 0 0 .003-.055c0-.015.003-.03.002-.045a.554.554 0 0 0-.007-.056l-.006-.044c-.004-.017-.011-.033-.017-.049-.006-.016-.01-.034-.017-.049l-.022-.039a.516.516 0 0 0-.031-.052l-.004-.006-.03-.033-.031-.036-2.323-2.186a.527.527 0 0 0-.72.767l1.856 1.746c-.998.676-1.863 1.044-2.47 1.044a1.716 1.716 0 0 1-.799-.192l-.04-.024c-2.12-1.134-4.581-3.272-6.27-5.447l-.173-.223c-1.69-2.177-3.155-5.09-3.73-7.425l-.01-.032a1.42 1.42 0 0 1-.008-.788A6.635 6.635 0 0 1 3.9 2.822l1.4 2.27a.525.525 0 1 0 .894-.553l-1.733-2.81a.519.519 0 0 0-.101-.117l-.02-.024a.523.523 0 0 0-.368-.15m13.81 2.29a.737.737 0 1 0-.002 1.474.737.737 0 0 0 .002-1.474ZM15.705 5.25a.737.737 0 1 0-.002 1.474.737.737 0 0 0 .002-1.474Zm-2.077 1.523a.737.737 0 1 0-.002 1.474.737.737 0 0 0 .002-1.474ZM11.55 8.295a.73.73 0 0 0-.714.566.734.734 0 1 0 .714-.566ZM5.993 0a1.58 1.58 0 0 0-.868.265l.58.878a.517.517 0 0 1 .283-.095.574.574 0 0 1 .456.29A30.641 30.641 0 0 1 8.56 4.828a.339.339 0 0 1-.095.442 3.24 3.24 0 0 1-.915.53 2.591 2.591 0 0 0-.122.054c-.787.39-1.627 1.15-1.155 2.558a.574.574 0 0 0 .021.055c.464 1.002 1.243 2.07 2.015 3.075l.012.016.02.027c.783.997 1.625 2.015 2.48 2.71a2.127 2.127 0 0 0 1.197.41c.69 0 1.232-.427 1.61-.87.114-.135.416-.51.543-.671l.014-.018a.58.58 0 0 1 .329-.242.16.16 0 0 1 .018-.001c.088.009.17.047.234.108.746.61 2.378 2.023 2.77 2.528a.519.519 0 0 0 .045.05c.503.501.346.801.295.9a.525.525 0 1 0 .93.487c.17-.324.46-1.174-.461-2.11-.556-.695-2.435-2.28-2.915-2.671a1.4 1.4 0 0 0-.896-.346c-.05 0-.098.003-.146.01a1.59 1.59 0 0 0-1.038.648 42.13 42.13 0 0 1-.52.644c-.327.384-.603.504-.833.504a1 1 0 0 1-.536-.195c-.762-.626-1.543-1.57-2.275-2.502l-.028-.038-.005-.006-.026-.032C8.405 9.94 7.68 8.946 7.26 8.049c-.11-.331-.245-.817.631-1.251l.067-.03c.459-.173.882-.429 1.25-.754a1.392 1.392 0 0 0 .297-1.647A31.385 31.385 0 0 0 7.295.721 1.587 1.587 0 0 0 5.993 0Z" fill="#F47E44"/></g><defs><clipPath id="a"><path fill="#fff" transform="translate(.271)" d="M0 0h20v20H0z"/></clipPath></defs></svg>
